!!!COM: buddy-holly
!!!OTL: thatll-be-the-day
!!!RNB: hooktheoryid: BbWgMGXzolX
**kern	**text
*clefG2	*
*k[f#c#g#]	*
*M4/4	*
=1	=1
2r	.
8.r	.
8.a	.
8a	.
=2	=2
8.r	D
16b	.
8a	.
8a	.
8a	.
8a	.
8a	.
8r	.
=3	=3
8r	A
8cc#	.
8a	.
8f#	.
8a	.
8a	.
8a	.
8r	.
=4	=4
8r	D
8cc	.
8a	.
8f#	.
16a	.
16a	.
4b	.
8a	.
=5	=5
4cc	A
4b	.
4a	.
4r	.
=6	=6
8r	D
8cc	.
8a	.
8f#	.
8a	.
8a	.
8b	.
8a	.
=7	=7
8r	A
8cc#	.
8a	.
8f#	.
8a	.
8a	.
4r	.
=8	=8
4b	B
4b	.
4b	.
4b	.
=9	=9
4cc#	E7
4cc#	.
4cc#	.
4cc#	.
=10	=10
1r	.
*-	*-